X: 051
T: The Earl of Mansfield
P: The Earl of Mansfield's March
C:John McEwan
R:Reel (4x48) AABBC
B:RSCDS L-15
Z:Anselm Lingnau <anselm@strathspey.org>
M:2/4
L:1/8
K:D
|:f/e/|"D"d>e dA|d/e/f/g/ a g/f/|"A"e>f eA|c/d/e/f/ g f/e/|\
       "D"d>e dA|d/e/f/g/ a g/f/|
                                 "A7"ge cA|d2 d::\
a/g/|"D"f>g fA|d/e/f/g/ a g/f/|"A"e>f eA|c/d/e/f/ g a/g/|
     "D"f>g fA|d/e/f/g/ a e/f/|"A7"ge cA|d2 d:|\
a/g/|"D"fd d a/g/|fd d e/f/|
                            "A7"gA ce|"A"cA A a/g/|\
     "D"fd d a/g/|fd d e/f/|"A7"ge cA|"D"d2 d||\
a/g/|"D"fd d a/g/|fd d e/f/|
                            "A"gA ce|c/e/A A B/c/|\
     "D"d>e dA|d/e/f/g/ a g/f/|"A7"ge cA|d2 d|]

%%sep 2 1 500
%%sep 1 1 500

